X:1
T:The Days Are Swiftly Gliding By
T:The Days Are Swiftly Gliding By
T:James Westwood Tosh
T:Mrs. E. H. Leland, ca. 1875
T:Public Domain Courtesy of the Cyber Hymnal™
C:James Westwood Tosh
Z:Public Domain
Z:Courtesy of the Cyber Hymnal™
%%score 1 2
L:1/8
Q:1/4=100
M:3/4
K:C
V:1 treble 
V:2 bass 
V:1
 [EG]2 | [EG]3 [FA] [EG][DF] | [CE]>[A,F] [Cc]3 [FA] | [EG]3 [FA] [EG][CE] | [CE]2 [B,D]2 z [EG] | %5
w: 1.~The|days are glid- ing|swift- ly by, The|days so bright and|gold- en, In|
w: 2.~The|earth is warm with|life and joy, The|air is full of|splen- dor And|
w: 3.~O|Giv- er of these|sum- mer hours, All|na- ture gives Thee|prais- es, From|
w: 4.~And|at Thy feet, we,|too, would sing, With|all Thy crea- tures|liv- ing, A|
 [EG]3 [FA] [EG][DF] | [CE][DG] [Cc]3 [Ec] | [DB]3 [CA] [B,G][C^F] | [C^F]2 !fermata![B,G]2 || %9
w: leaf and flower the|sum- mer writes Her|po- em sweet and|old- en.|
w: un- to all the|south wind brings Her|mes- sage sweet and|ten- der.|
w: moun- tain peak to|where the flower Its|low- ly bloom up-|rais- es.|
w: song of mirth, a|song of joy, A|song of glad thanks-|giv- ing.|
[M:4/4]"^Refrain" ([CE][DF]) | [EG]3 [FA] [EG]2 ([CE][DF]) | [EG]2 [Ec]2 [EG]3 [Ec] | %12
w: |||
w: |||
w: The *|gold- en days, the *|long bright days, The|
w: |||
 [Fd]3 [FB] [EG]2 [DF]2 | [CE]6 ([CE][DF]) | [EG]2 [FA]2 [EG]2 [Ge]2 | [Fd]2 [Ac]2 [GB]2 [FA]2 | %16
w: ||||
w: ||||
w: glad- dest of the|year! The *|green grass springs, the|wild bird sings, The|
w: ||||
 [EG] [Ec]3 [FB]2 [Fd]2 | [Ec]6 |] %18
w: ||
w: ||
w: sum- mer time is|here.|
w: ||
V:2
 [C,G,]2 | [C,G,]3 [C,G,] [C,G,][C,G,] | [C,G,]>[C,G,] [E,G,]3 [C,C] | [C,C]3 [C,C] [C,C][C,G,] | %4
 [G,,G,]2 [G,,G,]2 z [C,G,] | [C,G,]3 [C,G,] [C,G,][C,G,] | [C,C][B,,G,] [A,,A,]3 [A,,C] | %7
 [D,G,]3 [D,^F,] [D,G,][D,A,] | [D,A,]2 !fermata![G,,G,]2 ||[M:4/4] [C,G,]2 | %10
 [C,C]2 [C,C]2 [C,C]2 [C,G,]2 | [C,C]2 [C,C]2 [C,C]3 [C,C] | [G,B,]3 [G,D] [G,C]2 [G,B,]2 | %13
 [C,C]6 [C,G,]2 | [C,C]2 [C,C]2 [C,C]2 [C,C]2 | [F,A,]2 [F,C]2 [F,C]2 [F,C]2 | %16
 [G,C] [G,C]3 [G,D]2 [G,B,]2 | [C,C]6 |] %18

